hosted/assets/icon/widgets/dark-mode/unused/text-display.svg

<svg width="50" height="50" viewBox="0 0 50 50" fill="none" xmlns="http://www.w3.org/2000/svg">
<rect x="1" y="15" width="47" height="20" fill="#E75F63"/>
<path d="M2 14C0.906937 14 0 14.9069 0 16V34C0 35.0931 0.906937 36 2 36H48C49.0931 36 50 35.0931 50 34V16C50 14.9069 49.0931 14 48 14H2ZM2 16H48V34H2V16Z" fill="white"/>
<path d="M6.11963 29V20.5056H7.8489V27.557H12.1487V29H6.11963Z" fill="white"/>
<path d="M12.9958 25.8102C12.9958 25.2649 13.1302 24.7372 13.3989 24.227C13.6677 23.7168 14.0474 23.3273 14.5381 23.0586C15.0328 22.7898 15.5839 22.6555 16.1915 22.6555C17.1301 22.6555 17.8993 22.9612 18.4991 23.5727C19.0989 24.1803 19.3988 24.9495 19.3988 25.8803C19.3988 26.8189 19.095 27.5979 18.4874 28.2172C17.8837 28.8325 17.1223 29.1402 16.2031 29.1402C15.6345 29.1402 15.0912 29.0117 14.5732 28.7546C14.0591 28.4976 13.6677 28.1217 13.3989 27.6271C13.1302 27.1286 12.9958 26.5229 12.9958 25.8102ZM14.6783 25.8978C14.6783 26.5132 14.8244 26.9845 15.1165 27.3116C15.4086 27.6388 15.7689 27.8024 16.1973 27.8024C16.6257 27.8024 16.984 27.6388 17.2722 27.3116C17.5644 26.9845 17.7104 26.5093 17.7104 25.8862C17.7104 25.2786 17.5644 24.8112 17.2722 24.484C16.984 24.1569 16.6257 23.9933 16.1973 23.9933C15.7689 23.9933 15.4086 24.1569 15.1165 24.484C14.8244 24.8112 14.6783 25.2825 14.6783 25.8978Z" fill="white"/>
<path d="M22.2614 29H20.6198V22.7957H22.1446V23.6778C22.4055 23.2611 22.6392 22.9865 22.8456 22.8541C23.056 22.7217 23.2935 22.6555 23.5584 22.6555C23.9323 22.6555 24.2925 22.7587 24.6392 22.9651L24.1309 24.3964C23.8544 24.2173 23.5973 24.1277 23.3597 24.1277C23.13 24.1277 22.9352 24.1919 22.7755 24.3205C22.6158 24.4451 22.4893 24.6729 22.3958 25.004C22.3062 25.335 22.2614 26.0283 22.2614 27.0838V29Z" fill="white"/>
<path d="M28.9448 27.0254L30.5806 27.2999C30.3703 27.8997 30.0373 28.3574 29.5816 28.6728C29.1298 28.9844 28.5631 29.1402 27.8815 29.1402C26.8027 29.1402 26.0043 28.7877 25.4863 28.0828C25.0773 27.5181 24.8729 26.8053 24.8729 25.9446C24.8729 24.9164 25.1416 24.1121 25.6791 23.5318C26.2165 22.9476 26.8962 22.6555 27.718 22.6555C28.641 22.6555 29.3693 22.9612 29.9029 23.5727C30.4365 24.1803 30.6916 25.113 30.6682 26.371H26.5554C26.5671 26.8579 26.6995 27.2376 26.9527 27.5103C27.2058 27.779 27.5213 27.9134 27.8991 27.9134C28.1561 27.9134 28.3723 27.8433 28.5476 27.7031C28.7228 27.5628 28.8552 27.3369 28.9448 27.0254ZM29.0383 25.3662C29.0266 24.891 28.9039 24.5308 28.6702 24.2854C28.4366 24.0361 28.1522 23.9115 27.8173 23.9115C27.459 23.9115 27.163 24.042 26.9293 24.3029C26.6956 24.5639 26.5807 24.9183 26.5846 25.3662H29.0383Z" fill="white"/>
<path d="M31.8892 22.7957H33.4024V23.6428C33.9437 22.9846 34.5883 22.6555 35.3361 22.6555C35.7334 22.6555 36.0781 22.7372 36.3702 22.9008C36.6623 23.0644 36.9018 23.3117 37.0887 23.6428C37.3614 23.3117 37.6554 23.0644 37.9709 22.9008C38.2864 22.7372 38.6233 22.6555 38.9816 22.6555C39.4373 22.6555 39.8229 22.7489 40.1383 22.9359C40.4538 23.1189 40.6894 23.3896 40.8452 23.7479C40.9582 24.0128 41.0146 24.4412 41.0146 25.0332V29H39.373V25.4538C39.373 24.8385 39.3165 24.4412 39.2036 24.262C39.0517 24.0284 38.818 23.9115 38.5025 23.9115C38.2727 23.9115 38.0566 23.9816 37.8541 24.1218C37.6515 24.262 37.5055 24.4685 37.4159 24.7411C37.3263 25.0098 37.2815 25.4363 37.2815 26.0205V29H35.6399V25.5999C35.6399 24.9962 35.6107 24.6067 35.5523 24.4315C35.4938 24.2562 35.4023 24.1257 35.2777 24.04C35.1569 23.9544 34.9914 23.9115 34.7811 23.9115C34.5279 23.9115 34.3001 23.9797 34.0976 24.116C33.895 24.2523 33.749 24.449 33.6594 24.706C33.5737 24.9631 33.5309 25.3896 33.5309 25.9855V29H31.8892V22.7957Z" fill="white"/>
</svg>

<svg width="50" height="50" fill="none" xmlns="http://www.w3.org/2000/svg"><path fill="#E75F63" d="M1 15h47v20H1z"/><path d="M2 14c-1.093 0-2 .907-2 2v18c0 1.093.907 2 2 2h46c1.093 0 2-.907 2-2V16c0-1.093-.907-2-2-2H2zm0 2h46v18H2V16z" fill="#fff"/><path d="M6.12 29v-8.494h1.729v7.051h4.3V29h-6.03zm6.876-3.19c0-.545.134-1.073.403-1.583s.648-.9 1.14-1.168a3.406 3.406 0 011.653-.404c.938 0 1.707.306 2.307.918.6.607.9 1.377.9 2.307 0 .939-.304 1.718-.912 2.337-.603.616-1.365.923-2.284.923a3.62 3.62 0 01-1.63-.385 2.652 2.652 0 01-1.174-1.128c-.269-.498-.403-1.104-.403-1.817zm1.682.088c0 .615.146 1.087.438 1.414.293.327.653.49 1.081.49.429 0 .787-.163 1.075-.49.292-.328.438-.803.438-1.426 0-.607-.146-1.075-.438-1.402a1.375 1.375 0 00-1.075-.49 1.39 1.39 0 00-1.08.49c-.293.327-.439.798-.439 1.414zM22.261 29H20.62v-6.204h1.525v.882c.26-.417.494-.692.7-.824a1.31 1.31 0 01.713-.198c.374 0 .735.103 1.081.31l-.508 1.43c-.277-.179-.534-.268-.771-.268a.902.902 0 00-.584.192c-.16.125-.287.353-.38.684-.09.331-.135 1.024-.135 2.08V29zm6.684-1.975l1.636.275c-.21.6-.544 1.057-1 1.373-.451.311-1.018.467-1.7.467-1.078 0-1.877-.352-2.395-1.057-.409-.565-.613-1.278-.613-2.138 0-1.029.269-1.833.806-2.413.538-.584 1.217-.877 2.039-.877.923 0 1.651.306 2.185.918.534.607.789 1.54.765 2.798h-4.113c.012.487.145.867.398 1.14.253.268.568.402.946.402.257 0 .473-.07.649-.21.175-.14.307-.366.397-.678zm.093-1.659c-.011-.475-.134-.835-.368-1.08a1.125 1.125 0 00-.853-.375c-.358 0-.654.131-.888.392-.233.26-.348.615-.344 1.063h2.453zm2.852-2.57h1.512v.847c.542-.658 1.186-.988 1.934-.988.397 0 .742.082 1.034.246.292.163.532.41.719.742.272-.331.566-.579.882-.742a2.164 2.164 0 011.01-.245c.456 0 .842.093 1.157.28.316.183.551.454.707.812.113.265.17.693.17 1.285V29h-1.642v-3.546c0-.616-.056-1.013-.17-1.192-.151-.234-.385-.35-.7-.35-.23 0-.446.07-.649.21-.203.14-.349.346-.438.62-.09.268-.134.694-.134 1.278V29H35.64v-3.4c0-.604-.03-.993-.088-1.169a.74.74 0 00-.274-.391c-.121-.086-.287-.128-.497-.128-.253 0-.48.068-.683.204a1.136 1.136 0 00-.439.59c-.085.257-.128.684-.128 1.28V29h-1.642v-6.204z" fill="#fff"/></svg>
